images/slack-new-logo.svg

<svg enable-background="new 0 0 2447.6 2452.5" viewBox="0 0 2447.6 2452.5" xmlns="http://www.w3.org/2000/svg"><g clip-rule="evenodd" fill-rule="evenodd"><path d="m897.4 0c-135.3.1-244.8 109.9-244.7 245.2-.1 135.3 109.5 245.1 244.8 245.2h244.8v-245.1c.1-135.3-109.5-245.1-244.9-245.3.1 0 .1 0 0 0m0 654h-652.6c-135.3.1-244.9 109.9-244.8 245.2-.2 135.3 109.4 245.1 244.7 245.3h652.7c135.3-.1 244.9-109.9 244.8-245.2.1-135.4-109.5-245.2-244.8-245.3z" fill="#36c5f0"/><path d="m2447.6 899.2c.1-135.3-109.5-245.1-244.8-245.2-135.3.1-244.9 109.9-244.8 245.2v245.3h244.8c135.3-.1 244.9-109.9 244.8-245.3zm-652.7 0v-654c.1-135.2-109.4-245-244.7-245.2-135.3.1-244.9 109.9-244.8 245.2v654c-.2 135.3 109.4 245.1 244.7 245.3 135.3-.1 244.9-109.9 244.8-245.3z" fill="#2eb67d"/><path d="m1550.1 2452.5c135.3-.1 244.9-109.9 244.8-245.2.1-135.3-109.5-245.1-244.8-245.2h-244.8v245.2c-.1 135.2 109.5 245 244.8 245.2zm0-654.1h652.7c135.3-.1 244.9-109.9 244.8-245.2.2-135.3-109.4-245.1-244.7-245.3h-652.7c-135.3.1-244.9 109.9-244.8 245.2-.1 135.4 109.4 245.2 244.7 245.3z" fill="#ecb22e"/><path d="m0 1553.2c-.1 135.3 109.5 245.1 244.8 245.2 135.3-.1 244.9-109.9 244.8-245.2v-245.2h-244.8c-135.3.1-244.9 109.9-244.8 245.2zm652.7 0v654c-.2 135.3 109.4 245.1 244.7 245.3 135.3-.1 244.9-109.9 244.8-245.2v-653.9c.2-135.3-109.4-245.1-244.7-245.3-135.4 0-244.9 109.8-244.8 245.1 0 0 0 .1 0 0" fill="#e01e5a"/></g></svg>

<svg id="Capa_1" data-name="Capa 1" xmlns="http://www.w3.org/2000/svg" viewBox="0 0 2447.6 2452.5"><defs><style>.cls-1{fill:#36c5f0;}.cls-1,.cls-2,.cls-3,.cls-4{fill-rule:evenodd;}.cls-2{fill:#2eb67d;}.cls-3{fill:#ecb22e;}.cls-4{fill:#e01e5a;}</style></defs><title>slack-new-logo</title><path class="cls-1" d="M897.4,0C762.1.1,652.6,109.9,652.7,245.2c-.1,135.3,109.5,245.1,244.8,245.2h244.8V245.3C1142.4,110,1032.8.2,897.4,0h0m0,654H244.8C109.5,654.1-.1,763.9,0,899.2c-.2,135.3,109.4,245.1,244.7,245.3H897.4c135.3-.1,244.9-109.9,244.8-245.2.1-135.4-109.5-245.2-244.8-245.3Z" transform="translate(0 0)"/><path class="cls-2" d="M2447.6,899.2c.1-135.3-109.5-245.1-244.8-245.2-135.3.1-244.9,109.9-244.8,245.2v245.3h244.8C2338.1,1144.4,2447.7,1034.6,2447.6,899.2Zm-652.7,0v-654C1795,110,1685.5.2,1550.2,0c-135.3.1-244.9,109.9-244.8,245.2v654c-.2,135.3,109.4,245.1,244.7,245.3C1685.4,1144.4,1795,1034.6,1794.9,899.2Z" transform="translate(0 0)"/><path class="cls-3" d="M1550.1,2452.5c135.3-.1,244.9-109.9,244.8-245.2.1-135.3-109.5-245.1-244.8-245.2H1305.3v245.2C1305.2,2342.5,1414.8,2452.3,1550.1,2452.5Zm0-654.1h652.7c135.3-.1,244.9-109.9,244.8-245.2.2-135.3-109.4-245.1-244.7-245.3H1550.2c-135.3.1-244.9,109.9-244.8,245.2-.1,135.4,109.4,245.2,244.7,245.3Z" transform="translate(0 0)"/><path class="cls-4" d="M0,1553.2c-.1,135.3,109.5,245.1,244.8,245.2,135.3-.1,244.9-109.9,244.8-245.2V1308H244.8C109.5,1308.1-.1,1417.9,0,1553.2Zm652.7,0v654c-.2,135.3,109.4,245.1,244.7,245.3,135.3-.1,244.9-109.9,244.8-245.2V1553.4c.2-135.3-109.4-245.1-244.7-245.3-135.4,0-244.9,109.8-244.8,245.1h0" transform="translate(0 0)"/></svg>
